contributed-vectors/clue.svg

<svg xmlns="http://www.w3.org/2000/svg" xml:space="preserve" style="fill-rule:evenodd;clip-rule:evenodd;stroke-linejoin:round;stroke-miterlimit:2" viewBox="0 0 192 192"><path d="M164.5 21.5c0-5.519-4.481-10-10-10h-133c-5.519 0-10 4.481-10 10v133c0 5.519 4.481 10 10 10h133c5.519 0 10-4.481 10-10v-133Z" style="fill:#fff" transform="translate(8 8)"/><path d="M93.167 103.885c15.954 0 28.907 12.953 28.907 28.907s-12.953 28.907-28.907 28.907c-15.955 0-28.907-12.953-28.907-28.907s12.952-28.907 28.907-28.907Zm0 3.044c14.274 0 25.863 11.589 25.863 25.863s-11.589 25.863-25.863 25.863c-14.275 0-25.864-11.589-25.864-25.863s11.589-25.863 25.864-25.863Z" style="fill:#ff837d" transform="translate(2.833 -8.644)"/><path d="M93.167 103.885c15.954 0 28.907 12.953 28.907 28.907s-12.953 28.907-28.907 28.907c-15.955 0-28.907-12.953-28.907-28.907s12.952-28.907 28.907-28.907Zm0 3.044c14.274 0 25.863 11.589 25.863 25.863s-11.589 25.863-25.863 25.863c-14.275 0-25.864-11.589-25.864-25.863s11.589-25.863 25.864-25.863Z" style="fill:#ff837d" transform="rotate(-60 87.098 97.868)"/><path d="M93.167 103.885c15.954 0 28.907 12.953 28.907 28.907s-12.953 28.907-28.907 28.907c-15.955 0-28.907-12.953-28.907-28.907s12.952-28.907 28.907-28.907Zm0 3.044c14.274 0 25.863 11.589 25.863 25.863s-11.589 25.863-25.863 25.863c-14.275 0-25.864-11.589-25.864-25.863s11.589-25.863 25.864-25.863Z" style="fill:#ff837d" transform="rotate(-120 92.088 99.504)"/><path d="M93.167 103.885c15.954 0 28.907 12.953 28.907 28.907s-12.953 28.907-28.907 28.907c-15.955 0-28.907-12.953-28.907-28.907s12.952-28.907 28.907-28.907Zm0 3.044c14.274 0 25.863 11.589 25.863 25.863s-11.589 25.863-25.863 25.863c-14.275 0-25.864-11.589-25.864-25.863s11.589-25.863 25.864-25.863Z" style="fill:#ff837d" transform="rotate(-180 94.583 100.322)"/><path d="M93.167 103.885c15.954 0 28.907 12.953 28.907 28.907s-12.953 28.907-28.907 28.907c-15.955 0-28.907-12.953-28.907-28.907s12.952-28.907 28.907-28.907Zm0 3.044c14.274 0 25.863 11.589 25.863 25.863s-11.589 25.863-25.863 25.863c-14.275 0-25.864-11.589-25.864-25.863s11.589-25.863 25.864-25.863Z" style="fill:#ff837d" transform="rotate(120 97.078 101.14)"/><path d="M93.167 103.885c15.954 0 28.907 12.953 28.907 28.907s-12.953 28.907-28.907 28.907c-15.955 0-28.907-12.953-28.907-28.907s12.952-28.907 28.907-28.907Zm0 3.044c14.274 0 25.863 11.589 25.863 25.863s-11.589 25.863-25.863 25.863c-14.275 0-25.864-11.589-25.864-25.863s11.589-25.863 25.864-25.863Z" style="fill:#ff837d" transform="rotate(60 102.07 102.776)"/><path d="M93.167 103.885c15.954 0 28.907 12.953 28.907 28.907s-12.953 28.907-28.907 28.907c-15.955 0-28.907-12.953-28.907-28.907s12.952-28.907 28.907-28.907Zm0 3.044c14.274 0 25.863 11.589 25.863 25.863s-11.589 25.863-25.863 25.863c-14.275 0-25.864-11.589-25.864-25.863s11.589-25.863 25.864-25.863Z" style="fill:#ff837d" transform="translate(2.833 -36.033)"/></svg>

<?xml version="1.0" encoding="UTF-8" standalone="no"?>
<!DOCTYPE svg PUBLIC "-//W3C//DTD SVG 1.1//EN" "http://www.w3.org/Graphics/SVG/1.1/DTD/svg11.dtd">
<svg width="100%" height="100%" viewBox="0 0 192 192" version="1.1" xmlns="http://www.w3.org/2000/svg" xmlns:xlink="http://www.w3.org/1999/xlink" xml:space="preserve" xmlns:serif="http://www.serif.com/" style="fill-rule:evenodd;clip-rule:evenodd;stroke-linejoin:round;stroke-miterlimit:2;">
    <g id="Layer1">
        <g transform="matrix(1,0,0,1,8,8)">
            <path d="M164.5,21.5C164.5,15.981 160.019,11.5 154.5,11.5L21.5,11.5C15.981,11.5 11.5,15.981 11.5,21.5L11.5,154.5C11.5,160.019 15.981,164.5 21.5,164.5L154.5,164.5C160.019,164.5 164.5,160.019 164.5,154.5L164.5,21.5Z" style="fill:white;"/>
        </g>
        <g transform="matrix(1,0,0,1,3.02688,-9.44462)">
            <g transform="matrix(1,0,0,1,-0.193525,0.801042)">
                <path d="M93.167,103.885C109.121,103.885 122.074,116.838 122.074,132.792C122.074,148.746 109.121,161.699 93.167,161.699C77.212,161.699 64.26,148.746 64.26,132.792C64.26,116.838 77.212,103.885 93.167,103.885ZM93.167,106.929C107.441,106.929 119.03,118.518 119.03,132.792C119.03,147.066 107.441,158.655 93.167,158.655C78.892,158.655 67.303,147.066 67.303,132.792C67.303,118.518 78.892,106.929 93.167,106.929Z" style="fill:rgb(255,131,125);"/>
            </g>
            <g transform="matrix(0.5,-0.866025,0.866025,0.5,-44.2342,133.808)">
                <path d="M93.167,103.885C109.121,103.885 122.074,116.838 122.074,132.792C122.074,148.746 109.121,161.699 93.167,161.699C77.212,161.699 64.26,148.746 64.26,132.792C64.26,116.838 77.212,103.885 93.167,103.885ZM93.167,106.929C107.441,106.929 119.03,118.518 119.03,132.792C119.03,147.066 107.441,158.655 93.167,158.655C78.892,158.655 67.303,147.066 67.303,132.792C67.303,118.518 78.892,106.929 93.167,106.929Z" style="fill:rgb(255,131,125);"/>
            </g>
            <g transform="matrix(-0.5,-0.866025,0.866025,-0.5,48.9324,238.451)">
                <path d="M93.167,103.885C109.121,103.885 122.074,116.838 122.074,132.792C122.074,148.746 109.121,161.699 93.167,161.699C77.212,161.699 64.26,148.746 64.26,132.792C64.26,116.838 77.212,103.885 93.167,103.885ZM93.167,106.929C107.441,106.929 119.03,118.518 119.03,132.792C119.03,147.066 107.441,158.655 93.167,158.655C78.892,158.655 67.303,147.066 67.303,132.792C67.303,118.518 78.892,106.929 93.167,106.929Z" style="fill:rgb(255,131,125);"/>
            </g>
            <g transform="matrix(-1,-3.88578e-16,3.88578e-16,-1,186.14,210.088)">
                <path d="M93.167,103.885C109.121,103.885 122.074,116.838 122.074,132.792C122.074,148.746 109.121,161.699 93.167,161.699C77.212,161.699 64.26,148.746 64.26,132.792C64.26,116.838 77.212,103.885 93.167,103.885ZM93.167,106.929C107.441,106.929 119.03,118.518 119.03,132.792C119.03,147.066 107.441,158.655 93.167,158.655C78.892,158.655 67.303,147.066 67.303,132.792C67.303,118.518 78.892,106.929 93.167,106.929Z" style="fill:rgb(255,131,125);"/>
            </g>
            <g transform="matrix(-0.5,0.866025,-0.866025,-0.5,230.18,77.0817)">
                <path d="M93.167,103.885C109.121,103.885 122.074,116.838 122.074,132.792C122.074,148.746 109.121,161.699 93.167,161.699C77.212,161.699 64.26,148.746 64.26,132.792C64.26,116.838 77.212,103.885 93.167,103.885ZM93.167,106.929C107.441,106.929 119.03,118.518 119.03,132.792C119.03,147.066 107.441,158.655 93.167,158.655C78.892,158.655 67.303,147.066 67.303,132.792C67.303,118.518 78.892,106.929 93.167,106.929Z" style="fill:rgb(255,131,125);"/>
            </g>
            <g transform="matrix(0.5,0.866025,-0.866025,0.5,137.014,-27.5619)">
                <path d="M93.167,103.885C109.121,103.885 122.074,116.838 122.074,132.792C122.074,148.746 109.121,161.699 93.167,161.699C77.212,161.699 64.26,148.746 64.26,132.792C64.26,116.838 77.212,103.885 93.167,103.885ZM93.167,106.929C107.441,106.929 119.03,118.518 119.03,132.792C119.03,147.066 107.441,158.655 93.167,158.655C78.892,158.655 67.303,147.066 67.303,132.792C67.303,118.518 78.892,106.929 93.167,106.929Z" style="fill:rgb(255,131,125);"/>
            </g>
            <g transform="matrix(1,8.88178e-16,-8.88178e-16,1,-0.193525,-26.5883)">
                <path d="M93.167,103.885C109.121,103.885 122.074,116.838 122.074,132.792C122.074,148.746 109.121,161.699 93.167,161.699C77.212,161.699 64.26,148.746 64.26,132.792C64.26,116.838 77.212,103.885 93.167,103.885ZM93.167,106.929C107.441,106.929 119.03,118.518 119.03,132.792C119.03,147.066 107.441,158.655 93.167,158.655C78.892,158.655 67.303,147.066 67.303,132.792C67.303,118.518 78.892,106.929 93.167,106.929Z" style="fill:rgb(255,131,125);"/>
            </g>
        </g>
    </g>
</svg>
